common/src/main/resources/files/plugins/datagrip/apachePhoenix.svg

<!--
  - The MIT License (MIT)
  -
  - Copyright (c) 2015-2024 Elior "Mallowigi" Boukhobza
  -
  - Permission is hereby granted, free of charge, to any person obtaining a copy
  - of this software and associated documentation files (the "Software"), to deal
  - in the Software without restriction, including without limitation the rights
  - to use, copy, modify, merge, publish, distribute, sublicense, and/or sell
  - copies of the Software, and to permit persons to whom the Software is
  - furnished to do so, subject to the following conditions:
  -
  - The above copyright notice and this permission notice shall be included in all
  - copies or substantial portions of the Software.
  -
  - THE SOFTWARE IS PROVIDED "AS IS", WITHOUT WARRANTY OF ANY KIND, EXPRESS OR
  - IMPLIED, INCLUDING BUT NOT LIMITED TO THE WARRANTIES OF MERCHANTABILITY,
  - FITNESS FOR A PARTICULAR PURPOSE AND NONINFRINGEMENT. IN NO EVENT SHALL THE
  - AUTHORS OR COPYRIGHT HOLDERS BE LIABLE FOR ANY CLAIM, DAMAGES OR OTHER
  - LIABILITY, WHETHER IN AN ACTION OF CONTRACT, TORT OR OTHERWISE, ARISING FROM,
  - OUT OF OR IN CONNECTION WITH THE SOFTWARE OR THE USE OR OTHER DEALINGS IN THE
  - SOFTWARE.
  -->
<svg data-big="true" width="16px" height="16px" viewBox="0 0 16 16" fill="#FF9A34" xmlns="http://www.w3.org/2000/svg">
  <path
    d="M4.45373 4.4388C4.45373 4.4388 3.7549 4.47759 3.39547 5.05799C3.83335 4.75027 4.45373 4.85306 4.45373 4.85306C4.45373 4.85306 4.86841 5.29077 4.98777 5.67124C5.3343 6.7758 3.42688 8.17201 3.34148 10.0583C3.21863 12.7713 5.61177 15 8.28129 15C10.9508 15 12.663 12.4026 12.663 10.2842C12.663 7.80064 11.5294 6.50559 11.4511 4.33385C11.4017 2.96288 11.928 1.90894 12.4635 1C10.725 1.62382 10.0637 3.49089 9.98872 4.07818C9.64658 6.75825 11.4511 8.33242 10.9241 11.139C10.6823 12.4266 9.53875 13.2905 8.35006 13.2905C6.57304 13.2905 5.14725 11.7379 5.14725 10.0583C5.14725 8.37865 6.26981 7.27918 6.76227 5.09411C7.33299 5.09411 7.39822 4.81038 7.39822 4.81038C7.39822 4.81038 7.23842 4.81038 7.16341 4.71906C7.52867 4.556 7.45366 4.22008 7.45366 4.22008C7.45366 4.22008 7.05904 4.34727 6.54023 4.26242C6.54023 4.26242 6.0021 3.77709 5.34643 3.83313C4.73341 3.88553 4.45373 4.4388 4.45373 4.4388Z"
  />
  <path
    d="M8.59932 4.84019C8.59932 3.0346 10.1772 1.68262 10.1772 1.68262C10.1772 1.68262 9.42232 3.74984 9.56588 5.13552C9.67429 6.18188 10.0645 6.77814 10.3848 7.78014C10.9083 9.41793 10.3848 11.2437 10.3848 11.2437C10.3848 11.2437 10.519 9.31053 9.83437 7.96137C9.2568 6.82322 8.59932 6.30358 8.59932 4.84019Z"
  />
  <path
    d="M7.41917 8.96465C6.72463 8.17661 7.15386 5.64091 7.15386 5.64091C7.15386 5.64091 7.05944 6.91617 7.5914 7.78748C7.9324 8.34601 8.44301 8.63312 8.94435 9.31123C9.68347 10.3109 10.1157 11.6841 10.1157 11.6841C10.1157 11.6841 9.66624 10.7073 8.90499 10.1845C8.17172 9.68092 7.89609 9.50578 7.41917 8.96465Z"
  />
  <path
    d="M7.71288 7.12495C7.04379 5.07404 8.59997 2.83368 8.59997 2.83368C8.59997 2.83368 7.93025 4.01813 8.32379 5.88131C8.55137 6.95876 9.0411 7.24406 9.48742 8.1795C10.3599 10.0082 10.222 11.3431 10.222 11.3431C10.222 11.3431 9.90197 10.1868 9.1747 9.16131C8.62296 8.38336 8.03108 8.10032 7.71288 7.12495Z"
  />

</svg>

<svg xmlns="http://www.w3.org/2000/svg" width="16" height="16" fill="#FF9A34" data-big="true"><path d="M4.454 4.439s-.7.039-1.059.619c.438-.308 1.059-.205 1.059-.205s.414.438.534.818c.346 1.105-1.561 2.501-1.647 4.387C3.22 12.771 5.611 15 8.281 15s4.382-2.597 4.382-4.716c0-2.483-1.134-3.778-1.212-5.95-.05-1.371.477-2.425 1.012-3.334-1.738.624-2.4 2.49-2.474 3.078-.342 2.68 1.462 4.254.935 7.061a2.65 2.65 0 0 1-2.574 2.152c-1.777 0-3.203-1.553-3.203-3.233S6.27 7.28 6.762 5.094c.571 0 .636-.284.636-.284s-.16 0-.235-.09c.366-.164.29-.5.29-.5s-.394.127-.913.042c0 0-.538-.485-1.194-.429-.613.053-.892.606-.892.606"/><path d="M8.6 4.84c0-1.805 1.577-3.157 1.577-3.157s-.755 2.067-.611 3.453c.108 1.046.498 1.642.819 2.644.523 1.638 0 3.464 0 3.464s.134-1.933-.55-3.283c-.578-1.138-1.236-1.657-1.236-3.12M7.42 8.965c-.695-.788-.266-3.324-.266-3.324s-.095 1.275.437 2.146c.341.559.852.846 1.353 1.524.74 1 1.172 2.373 1.172 2.373s-.45-.977-1.211-1.5c-.733-.503-1.009-.678-1.486-1.22"/><path d="M7.713 7.125c-.67-2.051.887-4.291.887-4.291s-.67 1.184-.276 3.047C8.55 6.96 9.04 7.244 9.487 8.18c.873 1.828.735 3.163.735 3.163s-.32-1.156-1.047-2.182c-.552-.778-1.144-1.06-1.462-2.036"/></svg>
